X: 6
T:LA MARINE
M:3/4
L:1/8
Q:1/4=30
K:C
|A/2B/2c3/2A/2 e/2d/2B3/2B/2|c/2B/2AG/2FG/2A3/2A/2|A/2B/2c3/2A/2 e/2d/2B
3/2B/2|c/2B/2AG/2FG/2A3/2A/2|!
c/2d/2e3/2c/2 d/2e/2f3/2d/2|d/2e/2fa/2gf/2e3/2e/2|c/2d/2e3/2c/2 f/2e/2d3
/2|d3/2c/2c/2c/2 c/2d/2c/2B/2f/2e/2|
d/2c/2B/2|
